images_elementary_svg/cmd/sc_reload.svg

<svg height="16" width="16" xmlns="http://www.w3.org/2000/svg" xmlns:xlink="http://www.w3.org/1999/xlink"><linearGradient id="a" gradientTransform="matrix(.49412 0 0 .49434 11.832 -6.382)" gradientUnits="userSpaceOnUse" x1="-3.707" x2="-3.707" y1="39.159" y2="23.025"><stop offset="0" stop-color="#fff"/><stop offset=".373" stop-color="#fff" stop-opacity=".235"/><stop offset=".75" stop-color="#fff" stop-opacity=".157"/><stop offset="1" stop-color="#fff" stop-opacity=".392"/></linearGradient><linearGradient id="b" gradientTransform="matrix(.29115 0 0 .32302 2.122 -5.26)" gradientUnits="userSpaceOnUse" x1="29.556" x2="26.135" y1="28.447" y2="34.107"><stop offset="0" stop-color="#fff"/><stop offset=".004" stop-color="#fff" stop-opacity=".235"/><stop offset=".539" stop-color="#fff" stop-opacity=".157"/><stop offset="1" stop-color="#fff" stop-opacity=".392"/></linearGradient><linearGradient id="c" gradientTransform="matrix(.51817 0 0 .361 -1079.953 -1160.217)" gradientUnits="userSpaceOnUse" x1="2100.578" x2="2100.578" y1="3215.147" y2="3256.79"><stop offset="0" stop-color="#64baff"/><stop offset="1" stop-color="#3689e6"/></linearGradient><linearGradient id="d" gradientTransform="matrix(.6061 0 0 .606 12.72 -9.875)" gradientUnits="userSpaceOnUse" x1="-6.388" x2="-6.388" y1="22.767" y2="39.523"><stop offset="0" stop-color="#fff"/><stop offset=".5" stop-color="#fff" stop-opacity=".235"/><stop offset=".75" stop-color="#fff" stop-opacity=".157"/><stop offset="1" stop-color="#fff" stop-opacity=".392"/></linearGradient><path d="m8.5.5v2.02a6.5 6.5 0 0 0 -.5-.02 6.5 6.5 0 0 0 -6.5 6.5 6.5 6.5 0 0 0 6.5 6.5 6.5 6.5 0 0 0 6.48-6h-3.02a3.5 3.5 0 0 1 -3.46 3 3.5 3.5 0 0 1 -3.5-3.5 3.5 3.5 0 0 1 3.5-3.5 3.5 3.5 0 0 1 .5.04v1.96l5-3.5z" fill="url(#c)" opacity=".99"/><g fill="none"><path d="m8.5.5v2.02a6.5 6.5 0 0 0 -.5-.02 6.5 6.5 0 0 0 -6.5 6.5 6.5 6.5 0 0 0 6.5 6.5 6.5 6.5 0 0 0 6.48-6h-3.02a3.5 3.5 0 0 1 -3.46 3 3.5 3.5 0 0 1 -3.5-3.5 3.5 3.5 0 0 1 3.5-3.5 3.5 3.5 0 0 1 .5.04v1.96l5-3.5z" opacity=".5" stroke="#002e99" stroke-linecap="round" stroke-linejoin="round"/><path d="m9.496 5.578v-3.13l2.222 1.56z" opacity=".5" stroke="url(#b)" stroke-width=".992"/><path d="m12.32 10.176a4.49 4.49 0 0 1 -5.392 3.202 4.49 4.49 0 0 1 -3.33-5.315 4.49 4.49 0 0 1 5.232-3.458" opacity=".5" stroke="url(#a)" stroke-width=".992"/><ellipse cx="8" cy="9.212" opacity=".99" rx="4" ry="2.472"/><path d="m13.386 10.154a5.506 5.504 0 0 1 -6.446 4.246 5.506 5.504 0 0 1 -4.357-6.372 5.506 5.504 0 0 1 6.3-4.46" opacity=".5" stroke="url(#d)" stroke-width=".992"/></g></svg>

<svg xmlns="http://www.w3.org/2000/svg" xmlns:xlink="http://www.w3.org/1999/xlink" version="1" width="16" height="16"><defs><linearGradient id="a"><stop offset="0" stop-color="#fff"/><stop offset=".373" stop-color="#fff" stop-opacity=".235"/><stop offset=".75" stop-color="#fff" stop-opacity=".157"/><stop offset="1" stop-color="#fff" stop-opacity=".392"/></linearGradient><linearGradient id="b"><stop offset="0" stop-color="#fff"/><stop offset=".004" stop-color="#fff" stop-opacity=".235"/><stop offset=".539" stop-color="#fff" stop-opacity=".157"/><stop offset="1" stop-color="#fff" stop-opacity=".392"/></linearGradient><linearGradient id="c"><stop offset="0" stop-color="#64baff"/><stop offset="1" stop-color="#3689e6"/></linearGradient><linearGradient id="d"><stop offset="0" stop-color="#fff"/><stop offset=".5" stop-color="#fff" stop-opacity=".235"/><stop offset=".75" stop-color="#fff" stop-opacity=".157"/><stop offset="1" stop-color="#fff" stop-opacity=".392"/></linearGradient><linearGradient y2="23.025" x2="-3.707" y1="39.159" x1="-3.707" gradientTransform="matrix(.49412 0 0 .49434 11.832 -6.382)" gradientUnits="userSpaceOnUse" id="g" xlink:href="#a"/><linearGradient xlink:href="#b" id="f" gradientUnits="userSpaceOnUse" gradientTransform="matrix(.29115 0 0 .32302 2.122 -5.26)" x1="29.556" y1="28.447" x2="26.135" y2="34.107"/><linearGradient y2="3256.79" x2="2100.578" y1="3215.147" x1="2100.578" gradientTransform="matrix(.51817 0 0 .361 -1079.953 -1160.217)" gradientUnits="userSpaceOnUse" id="e" xlink:href="#c"/><linearGradient xlink:href="#d" id="h" gradientUnits="userSpaceOnUse" gradientTransform="matrix(.6061 0 0 .606 12.72 -9.875)" x1="-6.388" y1="22.767" x2="-6.388" y2="39.523"/></defs><path style="font-variant-east_asian:normal" d="M8.5.5v2.02A6.5 6.5 0 0 0 8 2.5 6.5 6.5 0 0 0 1.5 9 6.5 6.5 0 0 0 8 15.5a6.5 6.5 0 0 0 6.48-6h-3.02a3.5 3.5 0 0 1-3.46 3A3.5 3.5 0 0 1 4.5 9 3.5 3.5 0 0 1 8 5.5a3.5 3.5 0 0 1 .5.04V7.5l5-3.5z" opacity=".99" fill="url(#e)"/><path style="font-variant-east_asian:normal" d="M8.5.5v2.02A6.5 6.5 0 0 0 8 2.5 6.5 6.5 0 0 0 1.5 9 6.5 6.5 0 0 0 8 15.5a6.5 6.5 0 0 0 6.48-6h-3.02a3.5 3.5 0 0 1-3.46 3A3.5 3.5 0 0 1 4.5 9 3.5 3.5 0 0 1 8 5.5a3.5 3.5 0 0 1 .5.04V7.5l5-3.5-5-3.5z" opacity=".5" fill="none" stroke="#002e99" stroke-linecap="round" stroke-linejoin="round"/><path style="isolation:auto;mix-blend-mode:normal" d="M9.496 5.578v-3.13l2.222 1.56z" color="#000" overflow="visible" opacity=".5" solid-color="#000000" fill="none" stroke="url(#f)" stroke-width=".992"/><path d="M12.32 10.176a4.49 4.49 0 0 1-5.392 3.202 4.49 4.49 0 0 1-3.33-5.315A4.49 4.49 0 0 1 8.83 4.605" opacity=".5" fill="none" stroke="url(#g)" stroke-width=".992"/><ellipse ry="2.472" rx="4" cy="9.212" cx="8" opacity=".99" fill="none"/><path d="M13.386 10.154A5.506 5.504 0 0 1 6.94 14.4a5.506 5.504 0 0 1-4.357-6.372 5.506 5.504 0 0 1 6.3-4.46" opacity=".5" fill="none" stroke="url(#h)" stroke-width=".992"/></svg>
